X: 158
T:The Silver Cluster Reel
M:2/4
L:1/16
Z:abc by Bruce Osborne - bosborne@kos.net
K:Bb
(3FGA|B3d cBcd|Bdfb g2f2|bagf gfdB|cdcB G2F2|!
B3d cBcd|Bdfb g2f2|bagf gfdB|cBAc B2:|!
|:f2|g3a b2ag|fbdf BdF2|c=Bcd e2A2|BABc d2f2|!
g3a b2ag|fbdf BdF2|c=Bcd e2A2|B2cA B2:|!
